X: 8651
T: Cros An Lomanaigh
R: reel
M: 4/4
K: Gmajor
DGGB cABG|GBdB cAFA|DBBG AGAB|cBAG FGAF|
DGGB cABG|GBdB c2 Bc|dBcA BGAG|EGAc BGG2||
dggg bggg|defg agfg|dgfg dgfg|dBcA BG G2|
dggg bggg|defg aggg|dgfg dgfg|abag fdcA||

